icons/email-icon.svg

<?xml version="1.0" ?><svg viewBox="0 0 48 48" xmlns="http://www.w3.org/2000/svg"><title/><g data-name="8-Email" id="_8-Email"><path d="M45,7H3a3,3,0,0,0-3,3V38a3,3,0,0,0,3,3H45a3,3,0,0,0,3-3V10A3,3,0,0,0,45,7Zm-.64,2L24,24.74,3.64,9ZM2,37.59V10.26L17.41,22.17ZM3.41,39,19,23.41l4.38,3.39a1,1,0,0,0,1.22,0L29,23.41,44.59,39ZM46,37.59,30.59,22.17,46,10.26Z"/></g></svg>

<?xml version="1.0" encoding="UTF-8"?>
<svg xmlns="http://www.w3.org/2000/svg" version="1.1" viewBox="0 0 48 48">
  <!-- Generator: Adobe Illustrator 28.6.0, SVG Export Plug-In . SVG Version: 1.2.0 Build 709)  -->
  <g>
    <g id="Layer_1">
      <g id="_8-Email">
        <path d="M45,7H3c-1.7,0-3,1.3-3,3v28c0,1.7,1.3,3,3,3h42c1.7,0,3-1.3,3-3V10c0-1.7-1.3-3-3-3ZM44.4,9l-20.4,15.7L3.6,9h40.7ZM2,37.6V10.3l15.4,11.9-15.4,15.4ZM3.4,39l15.6-15.6,4.4,3.4c.4.3.9.3,1.2,0l4.4-3.4,15.6,15.6H3.4ZM46,37.6l-15.4-15.4,15.4-11.9v27.3Z"/>
      </g>
    </g>
  </g>
</svg>
